X:1
T:Lady Beatrice Hamilton
T:Lady Beatrice Hamilton
T:William Marshall
C:William Marshall
%%score { 1 ( 2 3 4 ) }
L:1/8
M:4/4
K:F
V:1 treble 
V:2 bass 
V:3 bass 
V:4 bass 
V:1
 FAcA fAcA | FAcA (dc)(BA) | FAcA fAcA | Ggbg (Tfe)(dc) :: Ffef dfcf |1 cfaf (dc)(BA) |1 %6
 Gg^fg dgBg :|2 dgbg (Tfe)(dc) ||2 [Fd]BBd [Fc]AAc || Ggbg (Tfe)(dc) |] %10
V:2
 [Ff]2 [Ff]2 [Ff]2 [Ff]2 | [Ff]2 [Ff]2 [Ff]2 [Ff]2 | [Ff]2 [Ff]2 [Ff]2 [Ff]2 | %3
 [Bb]2 [Gg]2 [cc']2 [cb]2 :: [Ff]2 [fa]2 [fb]2 [fa]2 |1 x6 d'c' |1 %6
 [gbd']2 [gbd']2 [gbc']2 [gbc']2 :|2 [Bb]2 [Bb]2 [Ff]2 [Ff]2 ||2 [Bb]2 [Gg]2 [cc']2 [cc']2 || x8 |] %10
V:3
 x8 | x8 | x8 | x8 :: x8 |1 [F,A,]2 [F,A,]2 [F,A,]2 F,2 |1 x8 :|2 x8 ||2 x8 || x8 |] %10
V:4
 x8 | x8 | x8 | x8 :: x8 |1 [bd']2 [bd']2 [gbd']2 [gbd']2 |1 x8 :|2 x8 ||2 x8 || x8 |] %10

